X:1
T:Merry Christmas
T:Merry Christmas
T:John Franklin Kinsey
T:Emily Zimmerman Kinsey, 1888
T:Public Domain Courtesy of the Cyber Hymnal™
C:John Franklin Kinsey
Z:Public Domain
Z:Courtesy of the Cyber Hymnal™
%%score 1 ( 2 3 )
L:1/8
Q:1/4=72
M:2/4
K:D
V:1 treble 
V:2 bass 
V:3 bass 
V:1
"^Refrain" [DF]/[DF]/[DF]/[DF]/ [FA]/[FA]/[FA]/[FA]/ | [GB][GB] [FA][DF] | [CE][DF] [EG][GB] | %3
w: ~ ~ ~ ~ ~ ~ ~ ~|~ ~ ~ ~|~ ~ ~ ~|
w: Mer- ry, mer- ry, mer- ry, mer- ry,|Christ- mas bells, O|sweet- ly, sweet- ly|
w: ~ ~ ~ ~ ~ ~ ~ ~|~ ~ ~ ~|~ ~ ~ ~|
 ([FA]2 [DF]) z | [DF]/[DF]/[DF]/[DF]/ [FA]/[FA]/[FA]/[FA]/ | [GB][GB] [FA][Fd] | %6
w: ~ *|~ ~ ~ ~ ~ ~ ~ ~|~ ~ ~ ~|
w: chime; *|Let your sweet- est mu- sic on the|breez- es swell, O|
w: ~ *|~ ~ ~ ~ ~ ~ ~ ~|~ ~ ~ ~|
 [Gc]/[Gc]/[Gc]/[Gc]/ [EB][Ec] | [Fd]4!fine! || [FA][DF] [FA]>[GB] | [FA][DF] [FA]>[FA] | %10
w: ~ ~ ~ ~ ~ ~|~|1.~Christ is born, and|He is king, Let|
w: mer- ry, mer- ry, Christ- mas|time.|2.~Ban- ish ev- ery|thought of care, Let|
w: ~ ~ ~ ~ ~ ~|~|3.~We are hap- py,|bright, and free, And|
 [EA][EG] [CE]>[EG] | [GB][FA] [FA]>[FA] | [FA][DF] [FA]>[GB] | [FA][DF] [FA]>[Fd] | %14
w: all the earth and|an- gels sing; While|all our hearts and|voic- es blend, In|
w: mirth and mu- sic|fill the air; Our|hearts are full of|love and joy, There’s|
w: we will sing of|mer- ry glee; So|come and join us|in our song, And|
 [Ec][EB] [Ee]>[D^G] | !fermata![CA]2 !fermata![EG]2!D.C.! |] %16
w: this our glad re-|frain; O,|
w: naught can us an-|noy. O,|
w: help the mirth a-|long; O,|
V:2
 [D,A,]/[D,A,]/[D,A,]/[D,A,]/ [D,D]/[D,D]/[D,D]/[D,D]/ | [G,D][G,D] [D,D][D,A,] | %2
 [A,,A,][A,,A,] [A,,A,][A,,A,] | (A,2 D) z | %4
 [D,A,]/[D,A,]/[D,A,]/[D,A,]/ [D,D]/[D,D]/[D,D]/[D,D]/ | [G,D][G,D] [D,D][D,A,] | %6
 A,/A,/A,/A,/ [A,,A,][A,,A,] | [D,A,]4 || [D,D][D,A,] [D,D]>[D,D] | [D,D][D,A,] [D,D]>[D,D] | %10
 [A,,C][A,,A,] [A,,A,]>[A,,A,C] | [D,D][D,D] [D,D]>[D,D] | [D,D][D,A,] [D,D]>[D,D] | %13
 [D,D][D,A,] [D,D]>[D,A,] | [E,A,][E,^G,] [E,G,]>[E,B,] | !fermata![A,,A,]2 !fermata![A,,A,]2 |] %16
V:3
 x4 | x4 | x4 | D,3 x | x4 | x4 | A,/A,/A,/A,/ x2 | x4 || x4 | x4 | x4 | x4 | x4 | x4 | x4 | x4 |] %16

